X:1
T:185 - Somente Cristo
T:Letra: Stuart Edmund McNair (1867-1959)
T:Música: Ira David Sankey (1840-1908)
M:4/4
L:1/4
Q:1/4=115
K:G
V:1
D| "G"D G A G | "D"G3/ F/ F F | "D7"F c E F | "G"E2 D/z/ D | D G B "G7"d | "C"d c G3/ A/ | "G/D"B D "D7"E F | A2 "G"G/z/ || B | "G"d B e d | "D7"d3/ c/ c A | c A d c | "G"c3/ B/ B D | D G B "G7"d | d G "C"He e | "G/D"d G "D7"c B | B3/ A/ "G"HG |]
w: 1.~So-men-te Cris-toé Sal-va-dor, Nem ou-tro co-nhe-ce-mos; Mor-reu por nós, em san-toa-mor, E vi-da nE-le te-mos. Je-sus, Je-sus éo Sal-va-dor, E nem há ou-tro Me-dia-dor; Foi E-le que por nós mor-reu, E vi-voes-tá por nós no céu. 
w: 2.~Os ho-mens san-tos e fi-éis Nós sem-pre res-pei-ta-mos; Mas a Je-sus, o Rei dos reis, Hu-mil-des a-do-ra-mos.       
w: 3.~A Deus fa-ze-mos o-ra-ção; Só E-le quer e po-de Va-ler-nos na tri-bu-la-ção; Aos seus, Deus sem-prea-co-de.  
w: 4.~No san-to san-gue de Je-sus Con-fi-a to-do cren-te; O queE-le fez na du-ra cruz Pra sem-preé su-fi-cien-te.
W:	                    
W: 
W: 1. Somente Cristo é Salvador,
W: Nem outro conhecemos;
W: Morreu por nós, em santo amor,
W: E vida nEle temos.
W: 
W:    (Estribilho)
W:    Jesus, Jesus é o Salvador,
W:    E nem há outro Mediador;
W:    Foi Ele que por nós morreu,
W:    E vivo está por nós no céu.
W: 
W: 2. Os homens santos e fiéis
W: Nós sempre respeitamos;
W: Mas a Jesus, o Rei dos reis,
W: Humildes adoramos.
W: 
W: 
W: 
W: 3. A Deus fazemos oração;
W: Só Ele quer e pode
W: Valer-nos na tribulação;
W: Aos seus, Deus sempre acode.
W: 
W: 4. No santo sangue de Jesus
W: Confia todo crente;
W: O que Ele fez na dura cruz
W: Pra sempre é suficiente.
W: 
W: 





